X:1
T:Title
%%score { ( 1 3 ) | 2 }
L:1/8
Q:1/4=144
M:6/4
K:C
V:1 treble nm="Grand Piano"
V:3 treble 
V:2 bass 
V:1
 [EG]2 [FA]2 [EG]2 [CE]2 [DF]2 [_E^F]2 | z6 [Ec]6 | B2 A2 G2 B2 c2 d2 | [Ec]4 [CE]2 [EG]6 | %4
w: B.~D.~Ackley * * * * *||||
 A2 F2 A2 c2 [GB]2 [FA]2 | [EG]2 [CE]2 [EG]2 [Ge]6 | [^Fe]2 [Fd]2 [Fc]2 F2 [FA]2 [Fe]2 | [Fd]12 | %8
w: ||||
 [CE]4 [DF]2 [EG]6 | A4 B2 c6 | B4 c2 d4 e2 | [Ec]6 [EG]6 | A4 F2 c6 | z6 [Ec]6 | %14
w: ||||||
 [^Fc]4 [FA]2 [FB]4 [Fc]2 | d6 G6 | E4 [DF]2 [EG]6 | A4 B2 c6 | B4 c2 d4 e2 | [Ec]6 [EG]6 | %20
w: ||||||
 A4 B2 c2 B2 A2 | G4 c2 [Ge]6 | [Fd]4 [FA]2 B4 e2 | d6 .[Ec]6 |] %24
w: ||||
V:2
 [C,C]2 [C,C]2 [C,C]2 [C,G,]2 [C,G,]2 [C,A,]2 | [C,C]4 [C,C]2 .[C,G,]6 | %2
 [G,DF]2 [G,CF]2 [G,B,F]2 [G,DF]2 [G,CE]2 [G,B,F]2 | [C,G,]4 [C,G,]2 [C,C]6 | %4
 [F,CF]2 [F,A,]2 [F,CF]2 [F,A,F]2 [F,B,]2 [F,C]2 | [C,C]2 [C,G,]2 [C,C]2 [C,C]6 | %6
 [D,A,]2 [D,A,]2 [D,A,]2 [D,C]2 [D,C]2 [D,C]2 | [G,B,]12 | [C,G,]4 [C,G,]2 [C,C]6 | %9
 [F,CF]4 [F,G,F]2 [F,A,F]6 | [G,DF]4 [G,CE]2 [G,B,F]4 [G,G]2 | [C,G,]4 C,2 C,4 C,2 | %12
 [F,CF]4 [F,A,]2 [F,A,F]6 | [C,C]4 [C,G,]2 .[C,G,]6 | [D,A,]4 [D,D]2 [D,D]4 [D,A,]2 | %15
 [G,B,F]6 [G,B,DF]6 | [C,G,C]4 [C,G,]2 [C,C]6 | [F,CF]4 [F,^G,F]2[K:treble] [F,A,F]6 | %18
 [G,DF]4 [G,CE]2 [G,B,F]4 [G,G]2 | [C,G,]4 C,2 C,4 C,2 | %20
 [^F,C_E]4 [F,B,E]2 [F,A,E]2 [F,B,E]2 [F,CE]2 | [G,CE]4 [G,CE]2 [C,C]6 | %22
 [D,C]4 [D,D]2[K:treble] [G,DF]4 [G,CG]2 | [G,B,F]6[K:bass] .[C,G,]6 |] %24
V:3
 x12 | [EG]4 [Ge]2 z4 C2 | x12 | x12 | x12 | x12 | x12 | x12 | x12 | x12 | x12 | z4 G,2 C4 C2 | %12
 x12 | [EG]4 [CE]2 z4 C2 | x12 | x12 | x12 | x12 | x12 | z4 G,2 C4 C2 | x12 | x12 | x12 | x12 |] %24

